build/img/svg/icon-map.svg

<svg width="26" height="31" viewBox="0 0 26 31" fill="none" xmlns="http://www.w3.org/2000/svg">
<path d="M12.6544 30.1179L12.6954 30.1502L12.7475 30.15L13.2101 30.1486L13.2589 30.1484L13.2983 30.1195C13.3675 30.0688 13.4355 30.0239 13.5069 29.9768C13.5557 29.9446 13.6061 29.9113 13.6595 29.8744C13.7838 29.7886 13.9112 29.6915 14.0169 29.5708L14.017 29.5707C16.8422 26.3409 19.6652 23.1091 22.486 19.8751C23.1317 19.1353 23.7218 18.3459 24.1318 17.4387C25.0474 15.4453 25.3546 13.2356 25.0164 11.0754C24.5635 8.0934 23.1534 5.60669 20.8157 3.64198C18.847 1.98724 16.5448 1.09345 13.9608 0.893597L13.9607 0.89359C11.5839 0.71126 9.28883 1.08843 7.22151 2.26317C4.97391 3.53878 3.3089 5.14493 2.24542 7.07416C1.18181 9.00362 0.725019 11.2469 0.879189 13.7882C1.00981 15.9426 1.76709 17.9019 3.2152 19.5685C6.07781 22.8661 8.94841 26.1575 11.827 29.4428L11.8273 29.4431C11.95 29.5824 12.0935 29.7003 12.236 29.8077C12.2983 29.8547 12.3578 29.8979 12.4159 29.9401C12.4968 29.9988 12.575 30.0556 12.6544 30.1179ZM21.6545 17.0252L21.7846 17.0998L21.6545 17.0252C21.2824 17.6743 20.7745 18.2527 20.2595 18.8392C20.1553 18.9579 20.0508 19.0769 19.9471 19.1968C17.6438 21.8431 15.3387 24.4887 13.032 27.1335C13.0148 27.1531 12.9974 27.1725 12.9787 27.1927C12.884 27.0843 12.7899 26.9766 12.6962 26.8694C12.3813 26.5091 12.0713 26.1544 11.7627 25.8004L11.7627 25.8004C9.49329 23.1981 7.22799 20.594 4.96681 17.988C3.95711 16.8233 3.43137 15.442 3.2777 13.9409L3.27769 13.9408C2.89128 10.1881 4.25909 7.15814 7.3617 4.91464L7.36179 4.91457C9.2875 3.51983 11.5087 2.98069 13.8881 3.23642L13.8881 3.23642C15.9872 3.4617 17.7299 4.13659 19.1201 5.22986C20.5105 6.32316 21.5566 7.84131 22.2522 9.76605C23.1455 12.2375 22.9799 14.7132 21.6545 17.0252Z" fill="white" stroke="white" stroke-width="0.3"/>
<path d="M13.0155 7.01443C16.2576 7.06774 18.8335 9.62859 18.7884 12.7516C18.7433 15.8747 16.1216 18.4085 12.9588 18.3758C9.71889 18.3431 7.11242 15.7539 7.16988 12.6258C7.22733 9.49781 9.86579 6.96326 13.0155 7.01443ZM16.715 12.6948C16.7129 11.7296 16.3205 10.8044 15.6232 10.1208C14.926 9.43727 13.9805 9.05083 12.993 9.04577C12.5016 9.04455 12.0147 9.13806 11.5603 9.32094C11.106 9.50382 10.6929 9.77249 10.3449 10.1116C9.99691 10.4506 9.72073 10.8534 9.53219 11.2969C9.34365 11.7405 9.24646 12.2159 9.24617 12.6962C9.2475 13.6613 9.63939 14.5867 10.3363 15.2705C11.0332 15.9543 11.9786 16.3409 12.9661 16.3459C13.9585 16.3474 14.911 15.9637 15.614 15.279C16.3171 14.5943 16.7131 13.6648 16.715 12.6948Z" fill="white"/>
<path d="M13.0155 7.01443C16.2576 7.06774 18.8335 9.62859 18.7884 12.7516C18.7433 15.8747 16.1216 18.4085 12.9588 18.3758C9.71889 18.3431 7.11242 15.7539 7.16988 12.6258C7.22733 9.49781 9.86579 6.96326 13.0155 7.01443ZM16.715 12.6948C16.7129 11.7296 16.3205 10.8044 15.6232 10.1208C14.926 9.43727 13.9805 9.05083 12.993 9.04577C12.5016 9.04455 12.0147 9.13806 11.5603 9.32094C11.106 9.50382 10.6929 9.77249 10.3449 10.1116C9.99691 10.4506 9.72073 10.8534 9.53219 11.2969C9.34365 11.7405 9.24646 12.2159 9.24617 12.6962C9.2475 13.6613 9.63939 14.5867 10.3363 15.2705C11.0332 15.9543 11.9786 16.3409 12.9661 16.3459C13.9585 16.3474 14.911 15.9637 15.614 15.279C16.3171 14.5943 16.7131 13.6648 16.715 12.6948Z" stroke="white"/>
</svg>

<svg width="26" height="31" fill="none" xmlns="http://www.w3.org/2000/svg"><path d="M12.654 30.118l.041.032h.053l.462-.001h.049l.04-.03c.069-.05.136-.095.208-.142.049-.032.1-.066.152-.103.125-.085.252-.182.358-.303h0c2.825-3.23 5.648-6.462 8.469-9.696.646-.74 1.236-1.53 1.646-2.436a11.115 11.115 0 00.884-6.364c-.452-2.982-1.863-5.468-4.2-7.433-1.969-1.655-4.271-2.549-6.855-2.748h0c-2.377-.183-4.672.194-6.74 1.37-2.247 1.275-3.912 2.88-4.976 4.81C1.182 9.004.725 11.247.88 13.788c.13 2.155.888 4.114 2.336 5.78 2.863 3.298 5.733 6.59 8.612 9.875h0c.123.14.267.257.409.365.062.047.122.09.18.132.08.059.159.116.238.178zm9-13.093l.13.075-.13-.075c-.372.65-.88 1.228-1.395 1.814l-.312.358a10408.044 10408.044 0 01-6.968 7.996 1680.223 1680.223 0 00-1.216-1.393h0c-2.27-2.602-4.535-5.206-6.796-7.812-1.01-1.165-1.536-2.546-1.69-4.047h0c-.386-3.753.982-6.783 4.085-9.026h0c1.925-1.395 4.147-1.934 6.526-1.679h0c2.1.226 3.842.9 5.232 1.994 1.39 1.093 2.437 2.611 3.132 4.536.893 2.472.728 4.947-.598 7.26z" fill="#fff" stroke="#fff" stroke-width=".3"/><path d="M13.015 7.014c3.243.054 5.819 2.615 5.773 5.738-.045 3.123-2.666 5.656-5.83 5.624-3.24-.033-5.846-2.622-5.788-5.75.057-3.128 2.696-5.663 5.845-5.612zm3.7 5.68a3.615 3.615 0 00-1.092-2.573 3.786 3.786 0 00-5.278-.01 3.648 3.648 0 00-.813 1.186 3.581 3.581 0 00-.286 1.4c.002.964.393 1.89 1.09 2.574a3.783 3.783 0 005.278.008 3.617 3.617 0 001.101-2.584z" fill="#fff"/><path d="M13.015 7.014c3.243.054 5.819 2.615 5.773 5.738-.045 3.123-2.666 5.656-5.83 5.624-3.24-.033-5.846-2.622-5.788-5.75.057-3.128 2.696-5.663 5.845-5.612zm3.7 5.68a3.615 3.615 0 00-1.092-2.573 3.786 3.786 0 00-5.278-.01 3.648 3.648 0 00-.813 1.186 3.581 3.581 0 00-.286 1.4c.002.964.393 1.89 1.09 2.574a3.783 3.783 0 005.278.008 3.617 3.617 0 001.101-2.584z" stroke="#fff"/></svg>
